X:505
T:Underhill
B:Da Mirrie Dancers, 1970
O:Shetland
Z:Nigel Gatherer
M:4/4
L:1/8
K:G
ge|dBBA GABG|A<ABG ABde|dBBA GABG|AGAB G2:|
g2|faea fe d2|faea faea|faea fedB|AGAB G2:|
